Numix-GalliumOS/24/status/telegram-panel.svg

<?xml version="1.0" encoding="UTF-8" standalone="no"?>
<svg
   xmlns:dc="http://purl.org/dc/elements/1.1/"
   xmlns:cc="http://creativecommons.org/ns#"
   xmlns:rdf="http://www.w3.org/1999/02/22-rdf-syntax-ns#"
   xmlns:svg="http://www.w3.org/2000/svg"
   xmlns="http://www.w3.org/2000/svg"
   xmlns:sodipodi="http://sodipodi.sourceforge.net/DTD/sodipodi-0.dtd"
   xmlns:inkscape="http://www.inkscape.org/namespaces/inkscape"
   width="24"
   viewBox="0 0 6.7733335 6.7733335"
   height="24"
   id="svg2"
   version="1.1"
   inkscape:version="0.91 r"
   sodipodi:docname="telegram-panel.svg">
  <metadata
     id="metadata12">
    <rdf:RDF>
      <cc:Work
         rdf:about="">
        <dc:format>image/svg+xml</dc:format>
        <dc:type
           rdf:resource="http://purl.org/dc/dcmitype/StillImage" />
        <dc:title />
      </cc:Work>
    </rdf:RDF>
  </metadata>
  <sodipodi:namedview
     pagecolor="#ffffff"
     bordercolor="#666666"
     borderopacity="1"
     objecttolerance="10"
     gridtolerance="10"
     guidetolerance="10"
     inkscape:pageopacity="0"
     inkscape:pageshadow="2"
     inkscape:window-width="1366"
     inkscape:window-height="747"
     id="namedview10"
     showgrid="true"
     inkscape:zoom="8"
     inkscape:cx="6.2898079"
     inkscape:cy="18.973906"
     inkscape:window-x="0"
     inkscape:window-y="21"
     inkscape:window-maximized="1"
     inkscape:current-layer="svg2">
    <inkscape:grid
       type="xygrid"
       id="grid3815" />
  </sodipodi:namedview>
  <defs
     id="defs4" />
  <path
     style="fill:#ececec;fill-opacity:1"
     d="m 5.4717626,1.4829328 c -0.041126,-0.00462 -0.086615,0.00339 -0.1322815,0.024252 L 1.3396181,3.0587799 C 1.06662,3.1689395 1.0683666,3.3223229 1.2900125,3.3905954 L 2.3162967,3.7130405 4.6924038,2.2049894 c 0.1121694,-0.06843 0.215123,-0.031901 0.1306281,0.043544 L 2.8977843,3.9958 2.8432182,4.4505302 2.5637735,3.5565028 2.3162967,3.7130405 c 0.1207201,0.3837901 0.2386356,0.7688163 0.3610184,1.1519833 0.038891,0.1027168 0.1374639,0.1305061 0.2243274,0.1333878 0.131089,0.00435 0.350546,-0.1785852 0.3505463,-0.1785852 L 3.6049395,4.5216335 4.5711459,5.2398318 C 4.7620871,5.3458205 4.9000267,5.2907058 4.947597,5.061247 L 5.6288468,1.832386 C 5.6811473,1.6214384 5.5951421,1.496797 5.4717626,1.4829328 Z M 3.1584891,4.1898182 3.3723444,4.3485604 3.1127419,4.5679335 3.1584891,4.1898182 Z"
     id="path88"
     inkscape:connector-curvature="0" />
</svg>

<svg xmlns="http://www.w3.org/2000/svg" width="24" viewBox="0 0 6.7733335 6.7733335" height="24">
 <path d="m 5.472 1.483 c -0.041 -0.005 -0.087 0.003 -0.132 0.024 l -4 1.552 c -0.273 0.11 -0.271 0.264 -0.05 0.332 l 1.026 0.322 2.376 -1.508 c 0.112 -0.068 0.215 -0.032 0.131 0.044 l -1.925 1.747 -0.055 0.455 -0.279 -0.894 -0.247 0.157 c 0.121 0.384 0.239 0.769 0.361 1.152 0.039 0.103 0.137 0.131 0.224 0.133 0.131 0.004 0.351 -0.179 0.351 -0.179 l 0.353 -0.298 0.966 0.718 c 0.191 0.106 0.329 0.051 0.376 -0.179 l 0.681 -3.229 c 0.052 -0.211 -0.034 -0.336 -0.157 -0.349 m -2.313 2.707 0.214 0.159 -0.26 0.219 0.046 -0.378" style="fill:#ececec;fill-opacity:1"/>
</svg>
